tipitek/img/advantage-icon-3.svg

<svg width="56" height="56" viewBox="0 0 56 56" fill="none" xmlns="http://www.w3.org/2000/svg">
<mask id="mask0_596_5186" style="mask-type:luminance" maskUnits="userSpaceOnUse" x="8" y="8" width="40" height="40">
<path d="M8 8.00012H47.9999V48H8V8.00012Z" fill="white"/>
</mask>
<g mask="url(#mask0_596_5186)">
<path fill-rule="evenodd" clip-rule="evenodd" d="M39.6037 41.9396H31.6138C31.5916 41.9396 31.5695 41.9374 31.5473 41.9374H29.3173C28.7903 41.9374 28.3584 42.3693 28.3584 42.8963V46.4573C28.3584 46.9822 28.7903 47.4141 29.3173 47.4141H39.8517C40.3788 47.4141 40.8106 46.9822 40.8106 46.4573V42.8963C40.8106 42.3693 40.3788 41.9374 39.8517 41.9374H39.6037V41.9396Z" fill="#EB5468"/>
<path fill-rule="evenodd" clip-rule="evenodd" d="M19.0996 15.3227V34.1554C19.0996 34.5408 19.4141 34.8552 19.7972 34.8552H36.231V15.3227H19.0996Z" fill="#3BC3A4"/>
<path fill-rule="evenodd" clip-rule="evenodd" d="M24.4856 31.8855H29.9156C29.7318 31.1215 29.9111 30.2799 30.4714 29.6532C31.1867 28.8493 32.3183 28.6256 33.2639 29.011V15.3227H22.0696V29.3985C22.0696 30.0474 21.9832 29.8193 22.5191 29.9411C23.261 30.1138 23.8456 30.6985 24.0139 31.4426C24.1291 31.9453 23.9076 31.8855 24.4856 31.8855Z" fill="#EFF6FF"/>
<path fill-rule="evenodd" clip-rule="evenodd" d="M33.2637 29.011C33.5233 29.1165 33.763 29.2655 33.9723 29.4517L36.2311 31.4691V15.3228H33.2637V29.011Z" fill="#00A887"/>
<path fill-rule="evenodd" clip-rule="evenodd" d="M33.9723 29.4516C33.7629 29.2654 33.5233 29.1164 33.2637 29.0109C32.3181 28.6256 31.1865 28.8493 30.4712 29.6532C29.9109 30.2799 29.7316 31.1215 29.9153 31.8855C30.0312 32.3751 30.2948 32.8173 30.6705 33.1522L32.5794 34.8552H27.0254C27.0254 37.7386 27.8315 41.8886 31.5474 41.9374H39.6038L41.4374 32.3926C41.8361 30.3198 41.6721 28.5016 39.874 27.1308L36.2311 24.429V31.4691L33.9723 29.4516Z" fill="#FFE5C1"/>
<path fill-rule="evenodd" clip-rule="evenodd" d="M19.1 22.0594V19.0897H14.6932C14.4939 19.0897 14.3278 18.9259 14.3278 18.7243V11.9189C14.3278 11.7196 14.4939 11.5535 14.6932 11.5535H41.3049C41.5064 11.5535 41.6725 11.7196 41.6725 11.9189V18.7243C41.6725 18.9259 41.5064 19.0897 41.3049 19.0897H36.2315V22.0594H42.5185C43.6855 22.0594 44.6399 21.105 44.6399 19.9379V10.7075C44.6399 9.55378 43.7077 8.60816 42.5605 8.58605H13.4397C12.2926 8.60816 11.3604 9.55378 11.3604 10.7075V19.9379C11.3604 21.105 12.3148 22.0594 13.4818 22.0594H19.1Z" fill="#375E7D"/>
<path fill-rule="evenodd" clip-rule="evenodd" d="M29.9159 31.8855H26.2088C25.5887 33.0105 24.8557 34.0094 24.0342 34.8553H32.5799L30.671 33.1522C30.2813 32.8046 30.0288 32.3594 29.9159 31.8855Z" fill="#00A887"/>
<path fill-rule="evenodd" clip-rule="evenodd" d="M26.209 31.8855H29.9161C29.7323 31.1215 29.9116 30.28 30.4719 29.6532C31.1872 28.8493 32.3188 28.6257 33.2644 29.0111V15.3227H26.9995C27.5111 16.5584 27.9009 17.9049 28.1423 19.3289C29.4998 19.557 30.5339 20.7374 30.5339 22.1569C30.5339 23.5166 29.5883 24.6572 28.3172 24.9517C28.047 27.5339 27.303 29.9035 26.209 31.8855Z" fill="#D9EEFF"/>
<path fill-rule="evenodd" clip-rule="evenodd" d="M37.5336 27.1308C39.3317 28.5016 39.4956 30.3198 39.0992 32.3927L37.2656 41.9374H39.6041L41.4377 32.3927C41.8364 30.3198 41.6724 28.5016 39.8742 27.1308L36.2314 24.4291V26.1653L37.5336 27.1308Z" fill="#FED1A3"/>
<path fill-rule="evenodd" clip-rule="evenodd" d="M14.6935 19.0897H19.1004V15.3227H14.3281V18.7243C14.3281 18.9258 14.4942 19.0897 14.6935 19.0897Z" fill="#DDDAEC"/>
<path fill-rule="evenodd" clip-rule="evenodd" d="M36.2318 15.3227V19.0897H41.3052C41.5068 19.0897 41.6729 18.9258 41.6729 18.7243V15.3227H36.2318ZM36.2318 15.3227H41.6729V11.919C41.6729 11.7196 41.5068 11.5535 41.3052 11.5535H14.6935C14.4942 11.5535 14.3281 11.7196 14.3281 11.919V15.3227H33.2644H36.2318Z" fill="#DDDAEC"/>
<path fill-rule="evenodd" clip-rule="evenodd" d="M27.6657 25.0247C29.249 25.0247 30.5335 23.7425 30.5335 22.1568C30.5335 20.5734 29.249 19.2912 27.6657 19.2912C26.0823 19.2912 24.7979 20.5734 24.7979 22.1568C24.7979 23.7425 26.0823 25.0247 27.6657 25.0247Z" fill="#FFD772"/>
<path fill-rule="evenodd" clip-rule="evenodd" d="M28.3165 24.9517C29.5877 24.6571 30.5333 23.5166 30.5333 22.1569C30.5333 20.7374 29.4991 19.557 28.1416 19.3289C28.3298 20.4384 28.4295 21.5922 28.4295 22.7792C28.4295 23.5166 28.3918 24.2408 28.3165 24.9517Z" fill="#FBBA58"/>
<path fill-rule="evenodd" clip-rule="evenodd" d="M33.9463 31.323L35.9969 33.1832C37.9036 34.8862 37.9435 33.3382 37.4209 32.5277L33.9728 29.4517C33.7635 29.2655 33.5238 29.1164 33.2642 29.011C32.3186 28.6257 31.187 28.8493 30.4717 29.6532C31.6697 29.8126 33.0162 30.4814 33.9463 31.323Z" fill="#FED1A3"/>
<path fill-rule="evenodd" clip-rule="evenodd" d="M34.1187 37.0499C33.9792 36.339 33.4721 35.6503 33.1465 35.3624L32.5796 34.8552H30.54L31.2044 35.4465C31.5277 35.7366 32.3471 36.7376 32.4889 37.4485C32.6306 38.1593 34.1409 38.5381 34.1187 37.0499Z" fill="#FED1A3"/>
<path fill-rule="evenodd" clip-rule="evenodd" d="M38.2223 42.8963V46.4574C38.2223 46.9822 37.7905 47.4141 37.2656 47.4141H39.8522C40.3793 47.4141 40.8111 46.9822 40.8111 46.4574V42.8963C40.8111 42.3693 40.3793 41.9374 39.8522 41.9374H39.6041V41.9396H37.2945C37.8082 41.9552 38.2223 42.3781 38.2223 42.8963Z" fill="#E5384F"/>
<path fill-rule="evenodd" clip-rule="evenodd" d="M42.5605 8.58605H35.3789C36.1139 9.47708 36.7035 10.4786 37.1261 11.5535H41.3049C41.5064 11.5535 41.6725 11.7196 41.6725 11.919V18.7244C41.6725 18.9259 41.5064 19.0898 41.3049 19.0898H37.2878C37.0217 19.8695 36.6673 20.6162 36.2315 21.3154V22.0594H42.5184C43.6854 22.0594 44.64 21.105 44.64 19.9379V10.7076C44.64 9.55386 43.7076 8.60824 42.5605 8.58605Z" fill="#2B4D66"/>
<path fill-rule="evenodd" clip-rule="evenodd" d="M41.3047 11.5535H37.126C37.5843 12.725 37.8478 13.994 37.8745 15.3228H41.6724V11.9189C41.6724 11.7196 41.5063 11.5535 41.3047 11.5535Z" fill="#BEB9DD"/>
<path fill-rule="evenodd" clip-rule="evenodd" d="M41.6728 15.3227H37.875C37.8772 15.3958 37.8772 15.4689 37.8772 15.5442C37.8772 16.7843 37.6712 17.978 37.2881 19.0897H41.3052C41.5067 19.0897 41.6728 18.9258 41.6728 18.7243V15.3227Z" fill="#BEB9DD"/>
</g>
</svg>

<svg width="56" height="56" fill="none" xmlns="http://www.w3.org/2000/svg"><mask id="a" style="mask-type:luminance" maskUnits="userSpaceOnUse" x="8" y="8" width="40" height="40"><path d="M8 8h40v40H8V8z" fill="#fff"/></mask><g mask="url(#a)" fill-rule="evenodd" clip-rule="evenodd"><path d="M39.604 41.94h-7.99c-.022 0-.044-.003-.067-.003h-2.23a.962.962 0 0 0-.959.96v3.56c0 .525.432.957.96.957h10.534a.962.962 0 0 0 .959-.957v-3.56a.962.962 0 0 0-.96-.96h-.247v.003z" fill="#EB5468"/><path d="M19.1 15.323v18.832a.7.7 0 0 0 .697.7h16.434V15.323H19.1z" fill="#3BC3A4"/><path d="M24.486 31.886h5.43a2.477 2.477 0 0 1 .555-2.233 2.487 2.487 0 0 1 2.793-.642V15.323H22.07v14.075c0 .65-.087.421.45.543a2 2 0 0 1 1.494 1.502c.115.502-.106.442.472.442z" fill="#EFF6FF"/><path d="M33.264 29.011c.26.105.499.255.708.44l2.26 2.018V15.323h-2.968V29.01z" fill="#00A887"/><path d="M33.972 29.452a2.488 2.488 0 0 0-3.501.202 2.477 2.477 0 0 0-.556 2.232c.116.49.38.931.756 1.266l1.908 1.703h-5.554c0 2.884.806 7.034 4.522 7.082h8.057l1.833-9.544c.4-2.073.235-3.891-1.563-5.262l-3.643-2.702v7.04l-2.259-2.017z" fill="#FFE5C1"/><path d="M19.1 22.06v-2.97h-4.407a.367.367 0 0 1-.365-.366V11.92c0-.2.166-.366.365-.366h26.612a.37.37 0 0 1 .367.366v6.805a.368.368 0 0 1-.367.366H36.23v2.97h6.288a2.127 2.127 0 0 0 2.12-2.122v-9.23c0-1.154-.931-2.1-2.079-2.122H13.44a2.128 2.128 0 0 0-2.08 2.121v9.23c0 1.168.955 2.122 2.122 2.122H19.1z" fill="#375E7D"/><path d="M29.916 31.886h-3.707a13.85 13.85 0 0 1-2.175 2.97h8.546l-1.909-1.704a2.453 2.453 0 0 1-.755-1.267z" fill="#00A887"/><path d="M26.209 31.886h3.707a2.477 2.477 0 0 1 .556-2.233 2.487 2.487 0 0 1 2.792-.642V15.323H27a18.624 18.624 0 0 1 1.143 4.006 2.87 2.87 0 0 1 .175 5.623c-.27 2.582-1.014 4.951-2.108 6.933z" fill="#D9EEFF"/><path d="M37.534 27.13c1.798 1.372 1.962 3.19 1.565 5.263l-1.833 9.544h2.338l1.834-9.544c.398-2.073.234-3.891-1.564-5.262l-3.643-2.702v1.736l1.303.966z" fill="#FED1A3"/><path d="M14.694 19.09H19.1v-3.767h-4.772v3.401c0 .202.166.366.366.366zM36.232 15.323v3.767h5.073a.368.368 0 0 0 .368-.366v-3.401h-5.441zm0 0h5.44v-3.404a.37.37 0 0 0-.367-.366H14.694c-.2 0-.366.167-.366.366v3.404h21.904z" fill="#DDDAEC"/><path d="M27.666 25.025a2.867 2.867 0 1 0 .001-5.734 2.867 2.867 0 0 0-.001 5.734z" fill="#FFD772"/><path d="M28.317 24.952a2.87 2.87 0 0 0-.175-5.623 20.63 20.63 0 0 1 .288 3.45c0 .738-.038 1.462-.113 2.173z" fill="#FBBA58"/><path d="M33.946 31.323l2.05 1.86c1.908 1.703 1.947.155 1.425-.655l-3.448-3.076a2.488 2.488 0 0 0-3.501.201c1.198.16 2.544.828 3.474 1.67zM34.119 37.05c-.14-.711-.647-1.4-.972-1.688l-.567-.507h-2.04l.664.592c.324.29 1.143 1.29 1.285 2.002.142.71 1.652 1.09 1.63-.4z" fill="#FED1A3"/><path d="M38.222 42.896v3.561a.961.961 0 0 1-.956.957h2.586a.962.962 0 0 0 .96-.957v-3.56a.962.962 0 0 0-.96-.96h-.248v.003h-2.31a.959.959 0 0 1 .928.956z" fill="#E5384F"/><path d="M42.56 8.586H35.38a10.972 10.972 0 0 1 1.747 2.967h4.179a.37.37 0 0 1 .367.366v6.805a.368.368 0 0 1-.367.366h-4.017c-.266.78-.62 1.526-1.056 2.225v.744h6.286a2.128 2.128 0 0 0 2.122-2.121v-9.23c0-1.154-.932-2.1-2.08-2.122z" fill="#2B4D66"/><path d="M41.305 11.553h-4.179c.458 1.172.722 2.441.748 3.77h3.798v-3.404a.37.37 0 0 0-.367-.366zM41.673 15.323h-3.798a10.866 10.866 0 0 1-.587 3.767h4.017a.368.368 0 0 0 .368-.366v-3.401z" fill="#BEB9DD"/></g></svg>
